X:1
T:Hanforth, CM
T:William Statham (1832-1898)
T:Hanforth, CM
T:Public Domain
C:William Statham (1832-1898)
Z:Public Domain
%%score ( 1 2 ) ( 3 4 )
L:1/8
M:4/4
K:D
V:1 treble 
V:2 treble 
V:3 bass 
V:4 bass 
V:1
 D2 | F2 A2 A2 z d x | [Ee]2 [EA]2 [Fd]2 [Fd]2 | c2 z E [DF]2 [Fd]2 | [Fc]6 [Gc]2 | %5
 F2 z d [Gd]2 [GB]2 | [^Ge]2 [Be]2 [Ae]2 [Ec]2 | [Dd]2 [DG]2 [DE]2 [CE]2 | D6 |] %9
V:2
 D2 | F2 A2 d3 A2 | x8 | F3 F2 x3 | x8 | d3 A2 x3 | x8 | x8 | D6 |] %9
V:3
 D,2 | F,2 A,2 [F,A,]2 [F,A,]2 x | [C,A,]2 [C,A,]2 [B,,F,]2 [B,,B,]2 | %3
 [^A,,C]2 [A,,C]2 [B,,B,]2 [B,,B,]2 | [F,^A,]6 [E,=A,]2 | [D,A,]2 [F,=C]2 [G,B,]3 [G,B,] | %6
 [E,B,]2 [^G,D]2 [A,C]2 [=G,E]2 | [F,A,]2 [E,B,]2 A,2 [A,,G,]2 | [D,F,]6 |] %9
V:4
 D,2 | F,2 A,2 x5 | x8 | x8 | x8 | x8 | x8 | x4 A,2 x2 | x6 |] %9

